X:1
T:Hinsdale, CM
T:W. Lockett
T:Hinsdale, CM
T:Public Domain
C:W. Lockett
Z:Public Domain
%%score ( 1 2 ) ( 3 4 )
L:1/8
M:3/4
K:Eb
V:1 treble 
V:2 treble 
V:3 bass 
V:4 bass 
V:1
 [EG]2 | [GB]4 [EB]2 | (B2 A2) [EG]2 | [DG]4 [DF]2 | E4 [B,E]2 | [CE]4 [B,E]2 | %6
 ([B,D]2 [FA]2) [EG]2 | [DF]4 [DF]2 | (B3 c) [EB]2 | [AB]4 [AB]2 | (B2 =A2) [GB]2 | (A3 G) [^Fc]2 | %12
 ([GB]2 [EG]2) E2 | [EG]4 [DF]2 | E4 |] %15
V:2
 x2 | x6 | E4 x2 | x6 | E4 x2 | x6 | x6 | x6 | E4 x2 | x6 | G4 x2 | c4 x2 | x4 E2 | x6 | E4 |] %15
V:3
 [E,B,]2 | (B,2 E2) [E,_D]2 | [E,C]4 [E,B,]2 | [B,,B,]4 [B,,A,]2 | [E,G,]4 [E,G,]2 | %5
 [E,A,]4 [E,G,]2 | ([F,A,]2 [D,B,]2) [E,B,]2 | [B,,B,]4 [A,B,]2 | [G,B,]4 [G,B,]2 | [F,D]4 [F,D]2 | %10
 [E,_D]4 [E,D]2 | [A,,C]4 [=A,,E]2 | (E2 B,2) (G,=A,) | (B,2 =A,2) [B,,_A,]2 | [E,G,]4 |] %15
V:4
 x2 | E,4 x2 | x6 | x6 | x6 | x6 | x6 | x6 | x6 | x6 | x6 | x6 | B,,4 C,2 | B,,4 x2 | x4 |] %15

